X:1
T:Faith, Hope and Love
T:Charles Hutchinson Gabriel
T:Faith, Hope and Love
T:Public Domain
T:Public Domain
C:Charles Hutchinson Gabriel
Z:Public Domain
%%score ( 1 2 ) ( 3 4 )
L:1/8
M:4/4
K:F
V:1 treble 
V:2 treble 
V:3 bass 
V:4 bass 
V:1
 C2 | [CF]3 [CG] (FE)(DC) | [CF]2 [EG]2 [FA]2 [FB]2 | [Fc]3 [Fd] [Fc]2 ([FA][EG]) | %4
w: 1.~O|of grace, in- * crease *|Help me to dai-|ly trust Thy Word; *|
w: 2.~O|of grace, up- * build *|Let not a doubt|my spir- it sway; *|
w: 3.~O|of grace, in- * spire *|Fill my cold heart|with ho- ly fire, *|
 F2 ([EG][FA]) [EG]2 C2 | [CF]3 [CG] (FE)(DC) | [CF]2 [EG]2 [FA]2 [FB]2 | [Fc]3 [Fd] (cA) F2 | %8
w: Give me * the strength|ways comes From * lean- *|my bless- èd Lord.||
w: Be Thou * my con-|of light That * I *|the nar- row way.|O God of * grace,|
w: That I * may live|ing day As * my *|er doth de- sire.||
 [FA]2 [EG]2 F2 ||"^Refrain" [FA]2 | [EG]6 [GB]2 | [FA]6 [Fc]2 | [F=B]6 [Fd]2 | [Ec]6 ([FA][GB]) | %14
w: ||||||
w: sus’ name In-|my|faith, up-|build my|hope, My|heart with *|
w: ||||||
 [Ac]3 [Ac] ([Bd][Ac])([GB][FA]) | [GB]3 [GB] ([Ac][GB])([FA][EG]) | [FA]2 [FA]2 (Ac)([EB][FA]) | %17
w: |||
w: zeal in- flame, * Send *|down Thy Spir- * it *|from a- bove, * Till *|
w: |||
 ([FA]4 [EG]2) ([FA][GB]) | [Ac]2 [Ac]2 ([Bd][Ac])([GB][FA]) | [GB]2 [GB]2 ([Ac][GB])([FA][EG]) | %20
w: |||
w: and * hope *|are lost in * love. *||
w: |||
 [FA]2 (F_E) (cB)(AG) | [CF]2 [CE]2 [CF]2 |] %22
w: ||
w: ||
w: ||
V:2
 C2 | x4 C2 C2 | x8 | x8 | F2 x2 C2 x2 | x4 C2 C2 | x8 | x4 F2 F2 | x4 F2 || x2 | x8 | x8 | x8 | %13
w: God|my faith!|||that al-|ing on||||||||
w: God|my hope!|||stant shield|may walk||in Je-|crease|||||
w: God|my love!|||each pass-|Re- deem-||||||||
 x8 | x8 | x8 | x4 F2 x2 | x8 | x8 | x8 | x2 A2 D2 D2 | x6 |] %22
w: |||||||||
w: |||faith||||||
w: |||||||||
V:3
 [F,A,]2 | [F,A,]3 [F,A,] [G,B,]2 [C,B,]2 | [A,,C]2 [C,C]2 [F,C]2 [F,G,]2 | %3
w: ~|~ ~ ~ ~|~ ~ ~ ~|
 [F,A,]3 [F,B,] [F,A,]2 (F,G,) | [A,C]2 (G,F,) [C,C]2 [E,B,]2 | [F,A,]3 [F,A,] [G,B,]2 [C,B,]2 | %6
w: ~ ~ ~ ~ *|~ ~ * ~ ~|~ ~ ~ ~|
 [A,,C]2 [C,C]2 [F,C]2 [F,G,]2 | [F,A,]3 [F,B,] (A,C) [D,=B,]2 | [C,C]2 [C,B,]2 [F,A,]2 || z2 | %10
w: ~ ~ ~ ~|~ ~ ~ * ~|O God of||
 z2 [C,C]2 [C,C]2 z2 | z2 [F,C]2 [F,C]2 z2 | z2 G,2 [G,D]2 [G,=B,]2 | [C,C]6 [F,C]2 | %14
w: grace, in|Je- sus’|Name * *||
 [F,C]3 [F,C] [F,C]2 [F,C]2 | [C,C]3 [C,C] [C,C]2 [C,C]2 | [F,C]2 [F,C]2 (F,A,)(G,F,) | %17
w: |||
 [C,C]6 [F,C]2 | [F,C]2 [F,C]2 [F,C]2 [F,C]2 | [C,C]2 [C,C]2 [C,C]2 [C,C]2 | %20
w: |||
 [F,C]2 [F,C]2 [B,,B,]2 [B,,B,]2 | [C,A,]2 [C,G,]2 [F,,A,]2 |] %22
w: ||
V:4
 x2 | x8 | x8 | x6 C2 | x2 C2 x4 | x8 | x8 | x4 F,2 x2 | x6 || x2 | x8 | x8 | x2 G,2 x4 | x8 | x8 | %15
w: |||~|~|||~||||||||
 x8 | x4 C2 C2 | x8 | x8 | x8 | x8 | x6 |] %22
w: |||||||

